packages/IcoMoon/src/LabIcon/index.svg

<svg version="1.1" xmlns="http://www.w3.org/2000/svg" width="16" height="16" viewBox="0 0 16 16">
<path d="M14.942 12.57l-4.942-8.235v-3.335h0.5c0.275 0 0.5-0.225 0.5-0.5s-0.225-0.5-0.5-0.5h-5c-0.275 0-0.5 0.225-0.5 0.5s0.225 0.5 0.5 0.5h0.5v3.335l-4.942 8.235c-1.132 1.886-0.258 3.43 1.942 3.43h10c2.2 0 3.074-1.543 1.942-3.43zM3.766 10l3.234-5.39v-3.61h2v3.61l3.234 5.39h-8.468z"></path>
</svg>

<svg xmlns="http://www.w3.org/2000/svg" viewBox="0 0 16 16">
  <path d="M14.942 12.57L10 4.335V1h.5c.275 0 .5-.225.5-.5s-.225-.5-.5-.5h-5c-.275 0-.5.225-.5.5s.225.5.5.5H6v3.335L1.058 12.57C-.074 14.456.8 16 3 16h10c2.2 0 3.074-1.543 1.942-3.43zM3.766 10L7 4.61V1h2v3.61L12.234 10H3.766z"/>
</svg>
